X:396
T:Knole Park
S:Colin Hume's website,  colinhume.com  - chords can also be printed below the stave.
Q:1/2=112
C:Voight, 1809 / Bishop 1788
M:2/2
L:1/8
K:D
P:A
|: "D"A3B A3F | "/"A2d2 f2d2 | "G"B2ef "Em"g2e2 | "A"d2c2 "A7"B2A2 |\
"D"A3BA3F | "D"A2d2 "Bm"f2d2 | "Em"B3g "A7"e2c2 | "D"d2A2 D4 :|
P:B
|: "D"a2f2 A2af | "A"g2e2 A2g2 | "Em"g2f2 "E7/G#"e2d2 | "A"c2B2 A2G2 |\
"G"B2g2 "D/F#"A2f2 | "Em"G2e2 "D"F2 d2 | "Em"E2g2 "A"fedc | "D"d2A2 D4 :|

